PortableApps/LibreOfficePortable/App/libreoffice/help/media/icon-themes/cmd/lc_insertcolumnsafter.svg

<svg viewBox="0 0 24 24" xmlns="http://www.w3.org/2000/svg"><path d="m4 6v7.992188c.0093352.000014.0179809-.002085.0273438-.001954l4.1386718.003907-1.5566406-1.556641c-.42597-.408182-.6534969-.942581-.6230469-1.537109.027506-.53727.2740242-.9994419.5957031-1.3203129.3224931-.321681.7872843-.5628737 1.3164063-.5898437.579295-.029522 1.0993584.1977208 1.5058594.6074218l.0097656-.0097656c1.2644625 1.2598084 3.4344895 3.4306594 4.5859375 4.5839844v-8.171875zm12 0v15h6v-15zm-2 11.814453c-.814477.819396-2.036003 2.036815-3.1875 3.185547h3.1875zm-10 .169922v3.015625h2.0136719c-.0051648-.51662.1715772-1.037317.5859375-1.441406l1.5722656-1.56836-4.1445312-.003906c-.0093615.000131-.0180099-.001967-.0273438-.001953z" fill="#fff"/><path d="m3 2v1 3 3 1 4.257812c.3075872-.17611.654558-.272789 1.0273438-.267578l3.9726562.003907v-.166016l-.828125-.828125h-3.171875v-3h2.2675781c.0915452-.1553592.1945998-.3003696.3144531-.4199219.3089219-.308144.7504164-.5371987 1.2519532-.5800781h-3.8339844v-3h5v3h-.9394531c.5129047.0172874.9762995.2273132 1.34375.5976562l.0097656-.0097656c.1615926.1609979.3959249.3963622.5859375.5859374v-.173828h4v-1h-4v-3h4v-4h-5-5zm9.828125 11c.345606.3458.73122.730836 1 1h.171875v-1zm-9.828125 4.716797v3.283203c0 .554.446 1 1 1h2v-1h-2v-3.015625c-.3627253.000528-.6998667-.094936-1-.267578zm7.8125 3.283203c-.293609.292904-.561446.562125-.8125.8125v.1875h4v-1z" fill="#808080"/><g fill="#4d82b8"><path d="m23 2v18.5.5.5c0 .277-.223.5-.5.5h-6.5-.5-.5v-.5-.5-19zm-1 4h-6v3h6zm0 4h-6v3h6zm0 4h-6v3h6zm0 4h-6v3h6v-.5z"/><path d="m8.0239204 21.988127c-.431173.0118-.800553-.263693-.947402-.609409s-.08821-.802293.220735-1.103576l3.2917296-3.283187-6.5751646-.0059c-.294233.0041-.580072-.12096-.757921-.318376-.177849-.197417-.255896-.44202-.255896-.679725s.07805-.482309.255896-.679726c.177849-.197416.463688-.322496.757921-.318376l6.5712576.0059-3.2840066-3.279789c-.213432-.204519-.330105-.497094-.316451-.763714.01365-.26662.13405-.495796.302777-.664099.168728-.168303.39593-.285275.662206-.2988454.266275-.01357.558718.1015524.763781.3144704l-.0059-.0078c1.3543476 1.349362 3.8690606 3.864437 4.9170456 4.914642.514037.5239.480336 1.141229-.0078 1.576259-1.055988 1.065871-3.6697296 3.668076-4.9052456 4.900414-.181347.185168-.428604.293605-.687562.300796z"/></g></svg>

<svg viewBox="0 0 24 24" xmlns="http://www.w3.org/2000/svg">
  <path
     style="opacity:1;fill:#ffffff;fill-opacity:1;stroke:none;stroke-width:2;stroke-linecap:round;stroke-linejoin:round;stroke-miterlimit:4;stroke-dasharray:none;stroke-opacity:1"
     d="M 4 6 L 4 13.992188 C 4.0093352 13.992202 4.0179809 13.990103 4.0273438 13.990234 L 8.1660156 13.994141 L 6.609375 12.4375 C 6.183405 12.029318 5.9558781 11.494919 5.9863281 10.900391 C 6.0138341 10.363121 6.2603523 9.9009491 6.5820312 9.5800781 C 6.9045243 9.2583971 7.3693155 9.0172044 7.8984375 8.9902344 C 8.4777325 8.9607124 8.9977959 9.1879552 9.4042969 9.5976562 L 9.4140625 9.5878906 C 10.678525 10.847699 12.848552 13.01855 14 14.171875 L 14 6 L 4 6 z M 16 6 L 16 21 L 22 21 L 22 6 L 16 6 z M 14 17.814453 C 13.185523 18.633849 11.963997 19.851268 10.8125 21 L 14 21 L 14 17.814453 z M 4 17.984375 L 4 21 L 6.0136719 21 C 6.0085071 20.48338 6.1852491 19.962683 6.5996094 19.558594 L 8.171875 17.990234 L 4.0273438 17.986328 C 4.0179823 17.986459 4.0093339 17.984361 4 17.984375 z "
     />
  <path
     style="fill:#808080"
     d="M 3 2 L 3 3 L 3 6 L 3 9 L 3 10 L 3 14.257812 C 3.3075872 14.081702 3.654558 13.985023 4.0273438 13.990234 L 8 13.994141 L 8 13.828125 L 7.171875 13 L 4 13 L 4 10 L 6.2675781 10 C 6.3591233 9.8446408 6.4621779 9.6996304 6.5820312 9.5800781 C 6.8909531 9.2719341 7.3324476 9.0428794 7.8339844 9 L 4 9 L 4 6 L 9 6 L 9 9 L 8.0605469 9 C 8.5734516 9.0172874 9.0368464 9.2273132 9.4042969 9.5976562 L 9.4140625 9.5878906 C 9.5756551 9.7488885 9.8099874 9.9842528 10 10.173828 L 10 10 L 14 10 L 14 9 L 10 9 L 10 6 L 14 6 L 14 2 L 9 2 L 4 2 L 3 2 z M 12.828125 13 C 13.173731 13.3458 13.559345 13.730836 13.828125 14 L 14 14 L 14 13 L 12.828125 13 z M 3 17.716797 L 3 21 C 3 21.554 3.446 22 4 22 L 6 22 L 6 21 L 4 21 L 4 17.984375 C 3.6372747 17.984903 3.3001333 17.889439 3 17.716797 z M 10.8125 21 C 10.518891 21.292904 10.251054 21.562125 10 21.8125 L 10 22 L 14 22 L 14 21 L 10.8125 21 z "
     />
  <path
     d="m23 2v18.5.5.5c0 .277-.223.5-.5.5h-6.5-.5-.5v-.5-.5-19zm-1 4h-6v3h6zm0 4h-6v3h6zm0 4h-6v3h6zm0 4h-6v3h6v-.5z"
     fill="#4d82b8"
     />
  <path
     style="fill:#4d82b8"
     d="m 8.0239204,21.988127 c -0.431173,0.0118 -0.800553,-0.263693 -0.947402,-0.609409 -0.146849,-0.345716 -0.08821,-0.802293 0.220735,-1.103576 l 3.2917296,-3.283187 -6.5751646,-0.0059 c -0.294233,0.0041 -0.580072,-0.12096 -0.757921,-0.318376 -0.177849,-0.197417 -0.255896,-0.44202 -0.255896,-0.679725 0,-0.237705 0.07805,-0.482309 0.255896,-0.679726 0.177849,-0.197416 0.463688,-0.322496 0.757921,-0.318376 l 6.5712576,0.0059 -3.2840066,-3.279789 c -0.213432,-0.204519 -0.330105,-0.497094 -0.316451,-0.763714 0.01365,-0.26662 0.13405,-0.495796 0.302777,-0.664099 0.168728,-0.168303 0.39593,-0.285275 0.662206,-0.2988454 0.266275,-0.01357 0.558718,0.1015524 0.763781,0.3144704 l -0.0059,-0.0078 c 1.3543476,1.349362 3.8690606,3.864437 4.9170456,4.914642 0.514037,0.5239 0.480336,1.141229 -0.0078,1.576259 -1.055988,1.065871 -3.6697296,3.668076 -4.9052456,4.900414 -0.181347,0.185168 -0.428604,0.293605 -0.687562,0.300796 z"
     />
</svg>
